X:10601
%4722
T:Einstein's Reel
% Nottingham Music Database
S:Chris Dewhurst, via PR
M:4/4
L:1/4
K:Cmaj
"G7"EF |"C"Gc "F"Ac|"C"Gc/2A/2 -"F"A/2G/2E/2F/2|"C""e"Gc "Am"AE/2G/2-|\
"Dm"G2 "G7"G/2E/2F/2^F/2|"C"Gc "F"Ac|
"C""e"Gc/2A/2 -"Am"A/2G/2A/2c/2|"D7"BA/2B/2 -B/2B/2c|"G7"dB A_A|"C"Gc "F"Ac\
|"C"Gc/2A/2 -"F"A/2G/2E/2F/2|
"C"Gc de|"A7"f3e|"D""(f)"dc "Cdim""(f+)"
